X:520
T:
N:Valsmelodi efter en folkvisa (»Anders han var en hurtiger dräng»);
S:uppt, efter Greta Nilsdotter, Sallmans i Burs.
R:vals
O:Gotland, Burs
M:3/4
L:1/8
K:C
c2 GFEG|c2 cd e2|d2 defB|d2 c2 z2::f2 ff f2|e2 ee e2|d2 dedB|c2 ceg2|
f2 ff f2|e2 ee e2|d2 defB|d2 c2 z2:|

